X: 56
M:4/4
L:1/8
K:G
c2 dB cGAB|cBAG ECCE|DE=FG ABce|dcAG FD D2:|
|:ecgc acgc|egfg ecce|fdad bdad|faga fddf|
ecgc acgc|egfg ecce|dcBc ABce|1dcAG FD D2:|2dcAG FGAB||

